X:1
T:Title
%%score { ( 1 3 ) | ( 2 4 ) }
L:1/8
M:4/4
K:C
V:1 treble nm="Grand Piano"
V:3 treble 
V:2 bass 
V:4 bass 
V:1
 z4 z2[Q:1/4=108] [EG]2 | [EG]2 [_E^F]>[=EG] [=FA]2 [EG]2 | [Ge]>[Gd] [CGc]>[CFA] [CEG]2 E2 | %3
 .c2 z2 z4 |[M:3/4] A6 |[M:1/4] G2 |[M:4/4] [EG]2 [_E^F]>[=EG] [=FA]2 [EG]2 | %7
 [Ge]>[Gd] [CGc]>[CFA] [CEG]2 [CEG]2 | [DG]Bd[EAc] [DGB]2 [C^FA]2 |[M:3/4] [B,G]6 |[M:1/4] G2 | %11
[M:4/4] d3 c B[Gd][CGc][CFA] | [CEG]2 [CE]>F [CEG]2 c2 | BcBA G2 ^F2 |[M:3/4] E6 |[M:1/4] [B,FG]2 | %16
[M:4/4] [EG]3 [EA] [EB][Ec][Fd][Ec] | z4 z2 z A | G3 c c2 B2 |[M:3/4] [Ec]6 |] %20
V:2
 z4 z2 [C,C]2 | [C,C]2 [C,C]2 [C,C]2 [C,C]2 | [C,C]>[D,C] E,>F, C,2 E,2 | A,4 z4 | %4
[M:3/4] [F,A,C]6 |[M:1/4] [G,B,F]2 |[M:4/4] [C,C]2 [C,C]2 [C,C]2 [C,C]2 | %7
 [C,C]>[D,C] E,>F, C,2 C,2 | z G2 C, D,2 D,2 |[M:3/4] G,,6 |[M:1/4] G,2 | %11
[M:4/4][K:treble] [G,B,F]3 [G,CE][K:bass] [G,D][F,B,]E,F, | C,2 z z/ D/ C,2 C2 | B,CB,A, G,2 ^F,2 | %14
[M:3/4] E,6 |[M:1/4] D,2 |[M:4/4] [C,C]3 [C,C] [C,C][C,C][C,C][C,C] | %17
 [F,C]2 [F,C]2 [F,A,]2 [E,G,][K:treble].[F,A,F] | [G,CE]3 [A,C^F] [G,DG]2 [G,D=F]2 | %19
[M:3/4][K:bass] [C,C]6 |] %20
V:3
 x8 | x8 | x8 | F-[F-d][Fc][B,FB] A2 ^G2 |[M:3/4] x6 |[M:1/4] x2 |[M:4/4] x8 | x8 | x8 | %9
[M:3/4] x6 |[M:1/4] x2 |[M:4/4] x8 | x8 | x8 |[M:3/4] x6 |[M:1/4] x2 |[M:4/4] x8 | %17
 [GB]2 [FA]2 [Fd]2 .[Gc]>B, | x8 |[M:3/4] x6 |] %20
V:4
 x8 | x8 | x8 | A,,B,,C,D, [E,CE]2 [E,B,D]2 |[M:3/4] x6 |[M:1/4] x2 |[M:4/4] x8 | x8 | B,,4 z4 | %9
[M:3/4] x6 |[M:1/4] x2 |[M:4/4][K:treble] x4[K:bass] x4 | z2 C,2 z4 | x8 |[M:3/4] x6 |[M:1/4] x2 | %16
[M:4/4] x8 | x7[K:treble] x | x8 |[M:3/4][K:bass] x6 |] %20

